packages/foundations/assets/icons/functional/images/arrows/arrow_down_14.svg

<svg width="14" height="14" viewBox="0 0 14 14" fill="none" xmlns="http://www.w3.org/2000/svg">
<g clip-path="url(#clip0_183_3769)">
<path fill-rule="evenodd" clip-rule="evenodd" d="M7.481 11.681C7.42191 11.7507 7.34816 11.8064 7.265 11.8443C7.18185 11.8822 7.09136 11.9012 7 11.9C6.90572 11.8993 6.81256 11.8795 6.72612 11.8419C6.63967 11.8042 6.56174 11.7495 6.497 11.681L2.997 8.20297C2.86943 8.06666 2.79893 7.88666 2.8 7.69997C2.8 7.30597 3.106 6.99997 3.5 6.99997C3.675 6.99997 3.85 7.06597 3.981 7.19697L6.3 9.51597V2.79997C6.3 2.40597 6.606 2.09997 7 2.09997C7.372 2.09997 7.7 2.40597 7.7 2.79997V9.51597L9.997 7.19597C10.1356 7.07216 10.3142 7.00255 10.5 6.99997C10.872 6.99997 11.2 7.30597 11.2 7.69997C11.2014 7.86169 11.1455 8.01867 11.042 8.14297L7.481 11.681Z" fill="#1A1C1F"/>
</g>
<defs>
<clipPath id="clip0_183_3769">
<rect width="14" height="14" fill="white"/>
</clipPath>
</defs>
</svg>

<svg xmlns="http://www.w3.org/2000/svg" width="14" height="14" fill="none"><g clip-path="url(#a)"><path fill="#1A1C1F" fill-rule="evenodd" d="M7.481 11.681A.62.62 0 0 1 7 11.9a.7.7 0 0 1-.503-.219l-3.5-3.478A.73.73 0 0 1 2.8 7.7c0-.394.306-.7.7-.7.175 0 .35.066.481.197L6.3 9.516V2.8c0-.394.306-.7.7-.7.372 0 .7.306.7.7v6.716l2.297-2.32A.77.77 0 0 1 10.5 7c.372 0 .7.306.7.7a.68.68 0 0 1-.158.443z" clip-rule="evenodd"/></g><defs><clipPath id="a"><path fill="#fff" d="M0 0h14v14H0z"/></clipPath></defs></svg>
